X:1
T:Title
%%score { 1 | 2 }
L:1/8
M:4/4
K:Bb
V:1 treble nm="Grand Piano"
V:2 bass 
V:1
 z4 z2[Q:1/4=100] [B,D]>[CE] | [DF]>[_D=E] [=DF]>[DB] [FA]2 [_EG]2 | [DF]2 [DB]4 [DA]>[DB] | %3
 c>B A>B [FA]2 [EG]2 |[M:3/4] [DF]6 |[M:1/4] [B,D]>[CE] | %6
[M:4/4] [DF]>[_D=E] [=DF]>[DB] [FA]2 [_EG]2 | [DF]2 [DB]4 [DA]>[DB] | c2 G2 A3 F |[M:3/4] [DB]6 | %10
[M:1/4] [B,D]>[CE] |[M:4/4] [DF]>[_D=E] [=DF]>[_EG] [DF]2 [Ge]2 | [Fd]2 [DB]4 [DB]>[DA] | %13
 G>^F G>[GB] [=FA]2 [EG]2 |[M:3/4] [DF]6 |[M:1/4] [B,D]>[CE] | %16
[M:4/4] [DF]>[_D=E] [=DF]>[_EG] [DF]2 [Ge]2 | [Fd]2 [DB]4 [DB]>[DA] | [=EG]2 [EG]2 [EA]2 [EB]2 | %19
[M:3/4] [Ec]6 |[M:1/4] [B,D]>[CE] |[M:4/4] [DF]>[_D=E] [=DF]>[_EG] [DF]2 [Ge]2 | %22
 [Fd]2 [DB]4 [DB]>[DA] | G>^F G>[GB] [=FA]2 [EG]2 |[M:3/4] [DF]6 |[M:1/4] [DF]>[DF] | %26
[M:4/4] G>^F G>[=FA] [GB]2 [EG]2 | [DF]2 [FB]2 [Fc]2 [Fd]2 | [EG] [Gc]3 [EA]3 [EF] | %29
[M:3/4] [DB]6 |] %30
V:2
 z4 z2 [B,,F,]>[B,,F,] | [B,,B,]>[B,,B,] [B,,B,]>[B,,B,] [B,,B,]2 [B,,B,]2 | %2
 [B,,B,]2 [B,,F,]4 [B,,B,]>[B,,B,] | [E,G,E]>[E,G,E] [E,G,E]>[E,G,E] [E,B,]2 [E,B,]2 | %4
[M:3/4] [B,,B,]6 |[M:1/4] [B,,F,]>[B,,F,] | %6
[M:4/4] [B,,B,]>[B,,B,] [B,,B,]>[B,,F,] [B,,B,]2 [B,,B,]2 | [B,,B,]2 [B,,F,]4 [B,,B,]>[B,,B,] | %8
 [E,G,E]2 [E,CE]2 [F,CE]3 [F,A,E] |[M:3/4] [B,,B,]6 |[M:1/4] [B,,F,]>[B,,F,] | %11
[M:4/4] [B,,B,]>[B,,B,] [B,,B,]>[B,,B,] [B,,B,]2 [B,,B,]2 | [B,,B,]2 [B,,F,]4 [B,,B,]>[B,,B,] | %13
 [E,B,E]>[E,A,E] [E,B,E]>[E,E] [E,B,]2 [E,B,]2 |[M:3/4] [B,,B,]6 |[M:1/4] [B,,F,]>[B,,F,] | %16
[M:4/4] [B,,B,]>[B,,B,] [B,,B,]>[B,,B,] [B,,B,]2 [B,,B,]2 | [B,,B,]2 [B,,F,]4 [B,,B,]>[B,,B,] | %18
 [C,B,]2 [C,B,]2 [C,A,]2 [C,G,]2 |[M:3/4] [F,A,]6 |[M:1/4] [B,,F,]>[B,,F,] | %21
[M:4/4] [B,,B,]>[B,,B,] [B,,B,]>[B,,B,] [B,,B,]2 [B,,B,]2 | [B,,B,]2 [B,,F,]4 [B,,B,]>[B,,B,] | %23
 [E,B,E]>[E,A,E] [E,B,E]>[E,E] [E,B,]2 [E,B,]2 |[M:3/4] [B,,B,]6 |[M:1/4] [B,,B,]>[B,,B,] | %26
[M:4/4] [E,B,E]>[E,A,E] [E,B,E]>[E,B,] [E,E]2 [E,B,]2 | [B,,B,]2 [D,B,]2 [C,A,]2 [B,,B,]2 | %28
 [E,B,] [E,E]3 [F,C]3 [F,A,] |[M:3/4] [B,,B,]6 |] %30

